@extra/phlat-icons/symbolic/onscreen-keyboard.svg

<?xml version="1.0" encoding="UTF-8" standalone="no"?>
<svg
   xmlns:dc="http://purl.org/dc/elements/1.1/"
   xmlns:cc="http://creativecommons.org/ns#"
   xmlns:rdf="http://www.w3.org/1999/02/22-rdf-syntax-ns#"
   xmlns:svg="http://www.w3.org/2000/svg"
   xmlns="http://www.w3.org/2000/svg"
   width="16"
   height="16"
   id="svg1872"
   version="1.1">
  <defs
     id="defs1874" />
  <metadata
     id="metadata1877">
    <rdf:RDF>
      <cc:Work
         rdf:about="">
        <dc:format>image/svg+xml</dc:format>
        <dc:type
           rdf:resource="http://purl.org/dc/dcmitype/StillImage" />
        <dc:title />
        <dc:creator>
          <cc:Agent>
            <dc:title>Luca Ferretti &lt;elle.uca@libero.it&gt;</dc:title>
          </cc:Agent>
        </dc:creator>
        <dc:subject>
          <rdf:Bag>
            <rdf:li>keyboard device input</rdf:li>
          </rdf:Bag>
        </dc:subject>
        <dc:description>A keybord</dc:description>
        <cc:license
           rdf:resource="http://creativecommons.org/licenses/LGPL/2.1/" />
      </cc:Work>
      <cc:License
         rdf:about="http://creativecommons.org/licenses/LGPL/2.1/">
        <cc:permits
           rdf:resource="http://web.resource.org/cc/Reproduction" />
        <cc:permits
           rdf:resource="http://web.resource.org/cc/Distribution" />
        <cc:requires
           rdf:resource="http://web.resource.org/cc/Notice" />
        <cc:permits
           rdf:resource="http://web.resource.org/cc/DerivativeWorks" />
        <cc:requires
           rdf:resource="http://web.resource.org/cc/ShareAlike" />
        <cc:requires
           rdf:resource="http://web.resource.org/cc/SourceCode" />
      </cc:License>
    </rdf:RDF>
  </metadata>
  <g
     id="layer1"
     transform="translate(0,-32)">
    <path
       style="opacity:1;fill:#f1f2f2;fill-opacity:1;stroke:none;stroke-width:2;stroke-miterlimit:4;stroke-dasharray:none;stroke-opacity:1"
       d="M 0.81445312,3 C 0.36274259,3 0,3.3833488 0,3.859375 v 8.28125 C 0,12.616651 0.36274259,13 0.81445312,13 H 15.185547 C 15.637257,13 16,12.616651 16,12.140625 V 3.859375 C 16,3.3833488 15.637257,3 15.185547,3 Z M 1,4 H 3 V 6 H 1 Z M 4,4 H 6 V 6 H 4 Z M 7,4 H 9 V 6 H 7 Z m 3,0 h 2 v 2 h -2 z m 3,0 h 2 V 6 H 13 Z M 1,7 H 3 V 9 H 1 Z M 4,7 H 6 V 9 H 4 Z M 7,7 H 9 V 9 H 7 Z m 3,0 h 2 v 2 h -2 z m 3,0 h 2 V 9 H 13 Z M 1,10 h 2 v 2 H 1 Z m 3,0 h 8 v 2 H 4 Z m 9,0 h 2 v 2 h -2 z"
       transform="translate(0,32)"
       id="rect4539" />
  </g>
</svg>

<svg xmlns="http://www.w3.org/2000/svg" viewBox="0 0 16 16">
    <path d="M.814 3C.363 3 0 3.383 0 3.86v8.28c0 .477.363.86.814.86h14.372c.451 0 .814-.383.814-.86V3.86c0-.477-.363-.86-.814-.86zM1 4h2v2H1zm3 0h2v2H4zm3 0h2v2H7zm3 0h2v2h-2zm3 0h2v2h-2zM1 7h2v2H1zm3 0h2v2H4zm3 0h2v2H7zm3 0h2v2h-2zm3 0h2v2h-2zM1 10h2v2H1zm3 0h8v2H4zm9 0h2v2h-2z" fill="#f1f2f2"/>
</svg>
